X:1
T:In the Service of My King
T:Tillit Sidney Teddlie, 1919
T:In the Service of My King
T:Public Domain
T:Public Domain
C:Tillit Sidney Teddlie, 1919
Z:Public Domain
%%score ( 1 2 ) ( 3 4 )
L:1/8
M:4/4
K:Ab
V:1 treble 
V:2 treble 
V:3 bass 
V:4 bass 
V:1
 [CE][CA] | [Ec]2 [Ec]2 [CA]2 A[=EB] | [FA]2 [DF]2 [CE]2 [CA][DB] | [Ec] [Ec]3 [EA]2 [Ec]2 | %4
w: 1.~To the|har- vest fields I will|ly go, In the ser-|vice of my King,|
w: 2.~Let me|ev- er work with a|ing hand, In the ser-|vice of my King,s|
w: 3.~Let me|win some soul that his|may be In the ser-|vice of my King;s|
w: 4.~Just a|kind- ly word or a|of prayer, In the blessèd|service of my King,|
 [EB]6 [CE][CA] | [Ec]2 [Ec]2 [CA]2 [CA][=EB] | [FA]2 [DF]2 [CE]2 [EA][FB] | %7
w: With a song|of love to the faint|and low, In the ser-|
w: Guid- ed by|His Word, heed- ing each|com- mand, In the ser-|
w: Let me sing|some song that will make|me free, In the ser-|
w: That the lost|may turn and His glo-|ry share, In the blessèd|
 [Ec] [Ec]3 [Ec]2 [DB]2 | [CA]6 ||"^Refrain" [CE][CA] | [Ec] [Ec]3 [FA]2 [DF]2 | [CE]6 [EA][Ec] | %12
w: vice of my King!|||||
w: vice of my King!|In|the ser-|vice of my King,|In the ser-|
w: vice of my King!|||||
w: service of my King!|||||
 [Ae] [Ae]3 [Ae]2 [Ec]2 | (D2 =DF E2) [CE][CA] | [Ec]2 [Ec]2 [CA]2 [CA][=EB] | %15
w: |||
w: vice of my King!|It * * * is glo-|there, joy be- yond com-|
w: |||
w: |||
 [FA]2 [DF]2 [CE]2 [EA][FB] | [Ec] [Ec]3 [Ec]2 [DB]2 | [CA]6 |] %18
w: |||
w: pare, In the ser- vice|of my King. *||
w: |||
w: |||
V:2
 x2 | x6 C2 | x8 | x8 | x8 | x8 | x8 | x8 | x6 || x2 | x8 | x8 | x8 | B6 x2 | x8 | x8 | x8 | x6 |] %18
w: |glad-|||||||||||||||||
w: |will-||||||||||||ry|||||
w: |life|||||||||||||||||
w: |song|||||||||||||||||
V:3
 [A,,A,][A,,A,] | [A,,A,]2 [A,,A,]2 [A,,E,]2 [A,,E,][C,A,] | [D,A,]2 [F,A,]2 A,2 A,A, | %3
w: ~ ~|~ ~ ~ ~ ~|~ ~ ~ ~ ~|
 A,A,[E,A,][E,A,] [C,A,]2 [A,,A,]2 | [E,G,]6 [A,,A,][A,,A,] | %5
w: ~ ~ ~ ~ ~ ~|~ ~ ~|
 [A,,A,]2 [A,,A,]2 [A,,E,]2 [A,,E,][C,A,] | [D,A,]2 [D,A,]2 [A,,A,]2 [C,A,][D,A,] | %7
w: ~ ~ ~ ~ ~|~ ~ ~ ~ ~|
 [E,A,][E,A,][E,A,][E,A,] [E,A,]2 E,2 | [A,,E,]6 || [A,,A,][A,,A,] | %10
w: ~ ~ In the bless- èd|vice|of my|
 [A,,A,][A,,A,][A,,A,][A,,A,] [D,A,]2 [D,A,]2 | %11
w: King, my heav’n- ly King! In|
 [A,,A,][A,,A,] (3[C,A,]([C,A,][E,A,]) A,2 [A,C][A,E] | [A,C][A,C][E,C][E,C] [C,A,]2 [A,,A,]2 | %13
w: the bless- èd ser- * vice of my|of my King! ~ ~ ~|
 [E,G,]2 [B,,F,][B,,A,] [E,G,]2 A,A, | A,2 A,2 [A,,E,]2 [A,,E,][C,A,] | %15
w: ~ ~ ~ ~ ~ ~|the bless- èd ser- vice|
 [D,A,]2 [F,A,]2 A,2 [C,A,][D,A,] | [E,A,][E,A,][E,A,][E,A,] [E,A,]2 E,2 | [A,,E,]6 |] %18
w: King! * * * *|||
V:4
 x2 | x8 | x4 A,2 A,A, | A,A, x6 | x8 | x8 | x8 | x6 E,2 | x6 || x2 | x8 | x4 A,2 x2 | x8 | %13
w: ||~ ~ ~|~ ~||||ser-||||King,||
 x6 A,A, | A,2 A,2 x4 | x4 A,2 x2 | x6 E,2 | x6 |] %18
w: ~ In|of my||||

